X:440
T:Reel 440
M:4/4
K:Gmaj
L:1/8
dc|BABG dcBc|dggf g2g2|BABc dcBG| (3FGF AF FEdc|BABc dcdf|fdec d2ef|gefd ecdc|BGAF G2|Bc|dggf g2ga|bggf gfdc|BcBA Bcdc| (3ABc =fd c2Bc|dBGA B2d2|defd gfd2|GABc defd|g2ga bagf|
